build/img/sprite/twitter.svg

<svg width="24" height="24" fill="none" xmlns="http://www.w3.org/2000/svg"><path d="M8.28 20.126c7.544 0 11.672-6.256 11.672-11.672 0-.176 0-.352-.008-.528a8.358 8.358 0 0 0 2.048-2.128 8.314 8.314 0 0 1-2.36.648 4.127 4.127 0 0 0 1.808-2.272 8.16 8.16 0 0 1-2.608.992A4.095 4.095 0 0 0 15.84 3.87a4.107 4.107 0 0 0-4.104 4.104c0 .32.04.632.104.936a11.65 11.65 0 0 1-8.456-4.288 4.113 4.113 0 0 0 1.272 5.48A4.15 4.15 0 0 1 2.8 9.59v.056a4.11 4.11 0 0 0 3.288 4.024 4 4 0 0 1-1.08.144c-.264 0-.52-.024-.768-.072a4.102 4.102 0 0 0 3.832 2.848 8.228 8.228 0 0 1-5.096 1.76c-.328 0-.656-.016-.976-.056a11.669 11.669 0 0 0 6.28 1.832Z" fill="#fff"/></svg>

<svg width="24" height="24" viewBox="0 0 24 24" fill="none" xmlns="http://www.w3.org/2000/svg">
<path d="M8.28 20.126C15.824 20.126 19.952 13.87 19.952 8.454C19.952 8.278 19.952 8.102 19.944 7.926C20.744 7.35 21.44 6.62199 21.992 5.798C21.256 6.126 20.464 6.342 19.632 6.446C20.48 5.942 21.128 5.134 21.44 4.174C20.648 4.646 19.768 4.982 18.832 5.166C18.08 4.366 17.016 3.87 15.84 3.87C13.576 3.87 11.736 5.71 11.736 7.974C11.736 8.294 11.776 8.606 11.84 8.91C8.432 8.74199 5.408 7.10199 3.384 4.622C3.032 5.23 2.832 5.934 2.832 6.686C2.832 8.10999 3.56 9.36599 4.656 10.102C3.984 10.078 3.352 9.89399 2.8 9.58999C2.8 9.60599 2.8 9.62199 2.8 9.646C2.8 11.63 4.216 13.294 6.088 13.67C5.744 13.766 5.384 13.814 5.008 13.814C4.744 13.814 4.488 13.79 4.24 13.742C4.76 15.374 6.28 16.558 8.072 16.59C6.664 17.694 4.896 18.35 2.976 18.35C2.648 18.35 2.32 18.334 2 18.294C3.808 19.446 5.968 20.126 8.28 20.126Z" fill="white"/>
</svg>
